X:4627
T:Earl of Dalkieth Reel. BF11.64
M:4/4
L:1/8
Q:180
C:Browne A hand
S:MS11,c1800.,Browne Coll.,Lakes
R:Reel
O:England
A:Lakes
Z:vmp.Chris Partington
K:F
A|FCB,C F/F/F AF|G/G/G BA GDDG|FCB,C F/F/F Ac|dfcf AFF2:|!
c|f>gag gefc|d/d/d ba gdde|f>gag fcdB AcGB AFFc|!
f>gag fefc|d/d/d ba gdde|fcge gcdB|AcGB AFF2|]
